X:1
T:The Cat Came Back (2)
M:4/4
L:1/8
K:D
 A,A,| DD DD F2 DD| EA, A,A, A,3 A,| EE EE A2 AG| FD DD D2| z F| GG GG B B2 G|
 FF DF A3 F| EE EE AA AA| AAA-A A2| A3/2 G/2| F2 D2 D2 z D| EA, A,A, A,3 A,/2A,/2|
 EE EE A2 AG| FD D2 D2| z F| G2 G2 B3 G| FF DF A3 F| EE E2 A2 AG| F2 D2 D2|]
